static/assets/img/icons/theme/devices/watch-1.svg

<svg height="24" viewBox="0 0 24 24" width="24" xmlns="http://www.w3.org/2000/svg"><g fill="none" fill-rule="evenodd"><path d="m0 0h24v24h-24z" opacity="0"/><g fill="#000"><path d="m9 8c-.55228475 0-1 .44771525-1 1v6c0 .5522847.44771525 1 1 1h6c.5522847 0 1-.4477153 1-1v-6c0-.55228475-.4477153-1-1-1zm0-2h6c1.6568542 0 3 1.34314575 3 3v6c0 1.6568542-1.3431458 3-3 3h-6c-1.65685425 0-3-1.3431458-3-3v-6c0-1.65685425 1.34314575-3 3-3z" fill-rule="nonzero"/><path d="m9 8c-.55228475 0-1 .44771525-1 1v6c0 .5522847.44771525 1 1 1h6c.5522847 0 1-.4477153 1-1v-6c0-.55228475-.4477153-1-1-1z" opacity=".3"/><path d="m9 18h6v2.5c0 .8284271-.6715729 1.5-1.5 1.5h-3c-.82842712 0-1.5-.6715729-1.5-1.5z" opacity=".3"/><path d="m10.5 2h3c.8284271 0 1.5.67157288 1.5 1.5v2.5h-6v-2.5c0-.82842712.67157288-1.5 1.5-1.5z" opacity=".3"/></g></g></svg>

<svg width="24px" height="24px" viewBox="0 0 24 24" version="1.1" xmlns="http://www.w3.org/2000/svg" xmlns:xlink="http://www.w3.org/1999/xlink">
    <title>Icon For Watch#1</title>
    <g stroke="none" stroke-width="1" fill="none" fill-rule="evenodd">
        <rect opacity="0" x="0" y="0" width="24" height="24"></rect>
        <path d="M9,8 C8.44771525,8 8,8.44771525 8,9 L8,15 C8,15.5522847 8.44771525,16 9,16 L15,16 C15.5522847,16 16,15.5522847 16,15 L16,9 C16,8.44771525 15.5522847,8 15,8 L9,8 Z M9,6 L15,6 C16.6568542,6 18,7.34314575 18,9 L18,15 C18,16.6568542 16.6568542,18 15,18 L9,18 C7.34314575,18 6,16.6568542 6,15 L6,9 C6,7.34314575 7.34314575,6 9,6 Z" fill="#000000" fill-rule="nonzero"></path>
        <path d="M9,8 C8.44771525,8 8,8.44771525 8,9 L8,15 C8,15.5522847 8.44771525,16 9,16 L15,16 C15.5522847,16 16,15.5522847 16,15 L16,9 C16,8.44771525 15.5522847,8 15,8 L9,8 Z" fill="#000000" opacity="0.3"></path>
        <path d="M9,18 L15,18 L15,20.5 C15,21.3284271 14.3284271,22 13.5,22 L10.5,22 C9.67157288,22 9,21.3284271 9,20.5 L9,18 Z" fill="#000000" opacity="0.3"></path>
        <path d="M10.5,2 L13.5,2 C14.3284271,2 15,2.67157288 15,3.5 L15,6 L9,6 L9,3.5 C9,2.67157288 9.67157288,2 10.5,2 Z" fill="#000000" opacity="0.3"></path>
    </g>
</svg>
